svgs/duotone/comment-exclamation.svg

<svg xmlns="http://www.w3.org/2000/svg" viewBox="0 0 512 512"><!-- Font Awesome Pro 6.0.0-alpha2 by @fontawesome - https://fontawesome.com License - https://fontawesome.com/license (Commercial License) --><defs><style>.fa-secondary{opacity:.4}</style></defs><path d="M256 32C114.594 32 0 125.094 0 240C0 289.594 21.406 335 57 370.703C44.5 421.094 2.688 466 2.188 466.5C0 468.797 -0.594 472.203 0.688 475.203C2 478.203 4.812 480 8 480C74.312 480 124 448.203 148.594 428.594C181.312 440.906 217.594 448 256 448C397.406 448 512 354.906 512 240S397.406 32 256 32ZM232 136C232 122.75 242.75 112 256 112S280 122.75 280 136V248C280 261.25 269.25 272 256 272S232 261.25 232 248V136ZM256 368C238.328 368 224 353.672 224 336C224 318.326 238.328 304 256 304S288 318.326 288 336C288 353.672 273.672 368 256 368Z" class="fa-secondary"/><path d="M256 272C269.25 272 280 261.25 280 248V136C280 122.75 269.25 112 256 112S232 122.75 232 136V248C232 261.25 242.75 272 256 272ZM256 304C238.328 304 224 318.326 224 336C224 353.672 238.328 368 256 368S288 353.672 288 336C288 318.326 273.672 304 256 304Z" class="fa-primary"/></svg>

<svg xmlns="http://www.w3.org/2000/svg" viewBox="0 0 512 512"><!--! Font Awesome Pro 6.3.0 by @fontawesome - https://fontawesome.com License - https://fontawesome.com/license (Commercial License) Copyright 2023 Fonticons, Inc. --><defs><style>.fa-secondary{opacity:.4}</style></defs><path class="fa-primary" d="M256 272c13.25 0 24-10.75 24-24v-112c0-13.25-10.75-24-24-24S232 122.8 232 136v112C232 261.3 242.8 272 256 272zM256 304c-17.67 0-32 14.33-32 32c0 17.67 14.33 32 32 32s32-14.33 32-32C288 318.3 273.7 304 256 304z"/><path class="fa-secondary" d="M256 31.1c-141.4 0-255.1 93.09-255.1 208c0 49.59 21.38 94.1 56.97 130.7c-12.5 50.39-54.31 95.3-54.81 95.8c-2.187 2.297-2.781 5.703-1.5 8.703c1.312 3 4.125 4.797 7.312 4.797c66.31 0 116-31.8 140.6-51.41c32.72 12.31 69.01 19.41 107.4 19.41c141.4 0 255.1-93.09 255.1-207.1S397.4 31.1 256 31.1zM232 136C232 122.8 242.8 112 256 112s24 10.75 24 24v112c0 13.25-10.75 24-24 24S232 261.3 232 248V136zM256 368c-17.67 0-32-14.33-32-32c0-17.67 14.33-32 32-32s32 14.33 32 32C288 353.7 273.7 368 256 368z"/></svg>
